src/public/images/slide-intellect.svg

<svg width="308" height="250" fill="none" xmlns="http://www.w3.org/2000/svg"><rect x="101.485" y="74.392" width="102.151" height="102.151" rx="4.5" fill="url(#a)" stroke="url(#b)"/><rect x="92.865" y="68.234" width="123.384" height="122.153" rx="4.5" stroke="url(#c)" stroke-opacity=".4"/><rect x="79.318" y="52.224" width="149.246" height="145.552" rx="4.5" stroke="url(#d)" stroke-opacity=".1"/><rect x="70.697" y="43.603" width="166.488" height="162.793" rx="4.5" stroke="url(#e)" stroke-opacity=".05"/><rect x=".5" y=".5" width="306.882" height="249" rx="4.5" stroke="url(#f)" stroke-opacity=".05"/><rect x=".5" y=".5" width="306.882" height="249" rx="4.5" stroke="#389D2D" stroke-opacity=".05"/><rect x="107.643" y="80.549" width="90.116" height="90.116" rx="4.5" stroke="#A7A7A7" stroke-opacity=".3"/><path d="M167.858 136.601c.004.365-.09.842-.188 1.235-.685 2.766-3.725 5.87-8.005 5.587-3.878-.255-7.037-2.117-7.037-4.728 0-2.611 3.151-4.728 7.037-4.728 3.887 0 8.169.023 8.193 2.634z" fill="#F9F9F9"/><path d="M159.664 134.405c-2.087 0-6.851.577-7.945.577-1.931 0-3.498 1.212-3.498 2.708 0 .72.369 1.369.959 1.854 0 0 1.298 1.301 3.634.677 1.022-.273 2.686-2.303 5.614-2.625 1.458-.161 4.19.967 8.992.994.206-.443.249-.752.249-.752 0-2.613-4.118-3.433-8.005-3.433z" fill="#389D2D"/><path d="M167.669 137.836s2.816-.571 4.567-2.874c2.041-2.685 1.773-5.559 1.773-5.559 2.068-3.869-.645-7.496-.645-7.496-.27-4.083-2.794-5.775-2.794-5.775-1.639-3.895-5.265-4.942-5.265-4.942-2.847-3.33-7.897-3.223-7.897-3.223s-4.732-1.735-11.228.215c-1.074.322-4.674 1.074-7.307 2.686-8.298 5.08-8.926 13.002-8.81 14.29.643 7.199 5.694 8.488 8.917 9.24.752 2.041 3.519 5.802 8.488 4.406 6.125-1.075 8.703-2.902 10.208-2.902 1.505 0 5.695 1.612 9.993 1.934z" fill="#EEE"/><path d="M152.182 126.261c3.002-1.618 4.629-1.467 6.065-1.337.457.041.889.074 1.326.071 2.558-.058 4.63-1.136 5.547-2.179a.647.647 0 0 0-.97-.852c-.707.804-2.449 1.693-4.607 1.742-.387.011-.775-.027-1.177-.065-1.541-.143-3.455-.318-6.797 1.486-.857.463-2.033.634-3.307.763-2.833-4.089-1.128-7.65-.641-8.498.048.002.094.018.143.018.516 0 1.035-.127 1.504-.392a.645.645 0 0 0-.635-1.122 1.84 1.84 0 0 1-2.424-.602.645.645 0 0 0-1.084.695 3.04 3.04 0 0 0 1.222 1.079c-.671 1.364-1.947 4.951.48 8.962-1.707.168-3.417.409-4.755 1.272a9.286 9.286 0 0 0-2.422 2.309c-.811-.139-3.78-.87-4.298-4.166.322-.25.582-.58.744-.988a.648.648 0 0 0-.151-.7.642.642 0 0 0-.459-.182.648.648 0 0 0-.59.408.986.986 0 0 1-.585.594 1 1 0 0 1-.829-.09.65.65 0 0 0-.49-.056.641.641 0 0 0-.443.796.645.645 0 0 0 .306.387c.367.204.758.307 1.148.307.048 0 .093-.022.14-.025.614 3.112 3.073 4.478 4.812 4.892a4.789 4.789 0 0 0-.426 1.537.644.644 0 0 0 .585.699l.058.003a.644.644 0 0 0 .642-.588c.139-1.564 1.631-3.198 2.957-4.055 1.243-.801 3.062-.97 4.823-1.134 1.709-.156 3.323-.305 4.588-.989zm16.589-1.939a.646.646 0 0 0 1.132.619c.025-.044 2.375-4.447-2.025-7.406a.642.642 0 0 0-.895.175.642.642 0 0 0 .175.895c3.409 2.292 1.688 5.578 1.613 5.717zm-26.725-10.41a.654.654 0 0 0 .524-.269c1.869-2.6 4.458-1.711 4.568-1.669a.644.644 0 0 0 .445-1.21c-1.238-.459-4.097-.603-6.06 2.128a.644.644 0 0 0 .523 1.02zm16.855-2.435c2.869-.233 4.174 1.847 4.233 1.945a.646.646 0 0 0 1.113-.654c-.07-.117-1.728-2.86-5.447-2.576a.627.627 0 0 0-.439.224.647.647 0 0 0 .54 1.061zm11.798 18.839c-.317-.018-.667.234-.695.59-.003.023-.208 2.216-2.463 2.957a.644.644 0 0 0 .202 1.258.629.629 0 0 0 .202-.033c3.058-1.003 3.334-3.95 3.344-4.075a.646.646 0 0 0-.59-.697z" fill="#389D2D"/><path d="M138.786 124.051a.634.634 0 0 0 .052.501.64.64 0 0 0 .396.31.637.637 0 0 0 .499-.069.629.629 0 0 0 .297-.407 1.831 1.831 0 0 1 2.13-1.307.648.648 0 0 0 .766-.751.657.657 0 0 0-.27-.413.655.655 0 0 0-.232-.099 3.038 3.038 0 0 0-1.609.111c-1.503-2.571-1.21-5.106-1.207-5.133a.643.643 0 0 0-1.028-.597.648.648 0 0 0-.249.423c-.017.125-.361 2.986 1.37 5.949-.44.396-.758.911-.915 1.482zm14.414-3.185a1.376 1.376 0 0 1 1.876.02.644.644 0 0 0 .911-.015.641.641 0 0 0-.012-.911 2.593 2.593 0 0 0-1.028-.6c.382-1.31.231-1.891-.124-2.981a28.12 28.12 0 0 1-.202-.642l-.039-.129c-.469-1.557-.78-2.585.112-4.036a.647.647 0 0 0-.699-.965.644.644 0 0 0-.399.29c-1.197 1.944-.757 3.4-.248 5.085l.039.129c.075.249.145.471.21.667.318.981.415 1.31.026 2.496-.488.087-.94.312-1.303.65a.646.646 0 0 0 .421 1.105.646.646 0 0 0 .459-.163zm8.207-3.849c.383.002.761-.083 1.107-.246a.644.644 0 1 0-.549-1.167 1.376 1.376 0 0 1-1.784-.589.643.643 0 0 0-1.08-.119.632.632 0 0 0-.056.728c.232.433.577.774.979 1.012-.692 1.682-.299 3.469.022 4.417a.66.66 0 0 0 .321.39.656.656 0 0 0 .504.039.646.646 0 0 0 .396-.84c-.216-.642-.637-2.264-.002-3.644.049.003.094.019.142.019zm6.185 12.158a.644.644 0 0 0-.435-.57.64.64 0 0 0-.25-.032 2.359 2.359 0 0 1-2.272-1.307 2.35 2.35 0 0 1-.238-.889.66.66 0 0 0-.687-.6.656.656 0 0 0-.443.22.659.659 0 0 0-.157.468c.053.76.343 1.446.784 2.005-1.037 1.219-2.394 1.566-3.151 1.655-.67.08-1.255.012-1.932-.068-.62-.071-1.321-.152-2.189-.126l-.007.001c-.025-.369-.113-.907-.393-1.354a.643.643 0 0 0-.866-.168.65.65 0 0 0-.226.853c.173.277.205.719.205.934-.65.234-1.212.577-1.72.908-.908.591-1.623 1.057-2.7.815-.975-.223-1.951-.268-2.779-.152-.129-.324-.332-.711-.647-1.008a.641.641 0 0 0-.911.025.645.645 0 0 0 .025.912c.111.104.199.257.27.409-1.422.585-2.135 1.564-2.169 1.611a.648.648 0 0 0 .19.923.65.65 0 0 0 .858-.171c.007-.01.715-.958 2.111-1.341.722-.198 1.757-.182 2.767.048.282.064.544.086.798.09.12.281.167.615.173.739a.642.642 0 0 0 .643.609l.035-.002a.645.645 0 0 0 .61-.674 3.822 3.822 0 0 0-.168-.885c.595-.215 1.112-.551 1.598-.867.737-.481 1.435-.936 2.347-.966.763-.027 1.392.046 1.999.117.612.071 1.212.118 1.875.079.118.326.109.762.09.908a.65.65 0 0 0 .641.726.649.649 0 0 0 .639-.561 3.738 3.738 0 0 0-.077-1.265 6.021 6.021 0 0 0 3.024-1.897 3.605 3.605 0 0 0 2.135.533.645.645 0 0 0 .6-.685z" fill="#389D2D"/><defs><linearGradient id="a" x1="152.561" y1="73.892" x2="152.561" y2="177.042" gradientUnits="userSpaceOnUse"><stop/><stop offset="1" stop-color="#666"/></linearGradient><linearGradient id="b" x1="152.561" y1="73.892" x2="152.561" y2="177.042" gradientUnits="userSpaceOnUse"><stop/><stop offset="1" stop-color="#666"/></linearGradient><linearGradient id="c" x1="154.557" y1="67.734" x2="154.557" y2="190.887" gradientUnits="userSpaceOnUse"><stop/><stop offset="1" stop-color="#666"/></linearGradient><linearGradient id="d" x1="153.941" y1="51.724" x2="153.941" y2="198.276" gradientUnits="userSpaceOnUse"><stop/><stop offset="1" stop-color="#666"/></linearGradient><linearGradient id="e" x1="153.941" y1="43.103" x2="153.941" y2="206.897" gradientUnits="userSpaceOnUse"><stop/><stop offset="1" stop-color="#666"/></linearGradient><linearGradient id="f" x1="153.941" y1="0" x2="153.941" y2="250" gradientUnits="userSpaceOnUse"><stop/><stop offset="1" stop-color="#666"/></linearGradient></defs></svg>

<svg width="308" height="250" viewBox="0 0 308 250" fill="none" xmlns="http://www.w3.org/2000/svg">
<rect x="101.485" y="74.3916" width="102.151" height="102.151" rx="4.5" fill="url(#paint0_linear_276_42)" stroke="url(#paint1_linear_276_42)"/>
<rect x="92.8647" y="68.234" width="123.384" height="122.153" rx="4.5" stroke="url(#paint2_linear_276_42)" stroke-opacity="0.4"/>
<rect x="79.3179" y="52.2241" width="149.246" height="145.552" rx="4.5" stroke="url(#paint3_linear_276_42)" stroke-opacity="0.1"/>
<rect x="70.6973" y="43.6035" width="166.488" height="162.793" rx="4.5" stroke="url(#paint4_linear_276_42)" stroke-opacity="0.05"/>
<rect x="0.5" y="0.5" width="306.882" height="249" rx="4.5" stroke="url(#paint5_linear_276_42)" stroke-opacity="0.05"/>
<rect x="0.5" y="0.5" width="306.882" height="249" rx="4.5" stroke="#389D2D" stroke-opacity="0.05"/>
<rect x="107.643" y="80.5493" width="90.1164" height="90.1164" rx="4.5" stroke="#A7A7A7" stroke-opacity="0.3"/>
<path d="M167.858 136.601C167.862 136.966 167.768 137.443 167.67 137.836C166.985 140.602 163.945 143.706 159.665 143.423C155.787 143.168 152.628 141.306 152.628 138.695C152.628 136.084 155.779 133.967 159.665 133.967C163.552 133.967 167.834 133.99 167.858 136.601Z" fill="#F9F9F9"/>
<path d="M159.664 134.405C157.577 134.405 152.813 134.982 151.719 134.982C149.788 134.982 148.221 136.194 148.221 137.69C148.221 138.41 148.59 139.059 149.18 139.544C149.18 139.544 150.478 140.845 152.814 140.221C153.836 139.948 155.5 137.918 158.428 137.596C159.886 137.435 162.618 138.563 167.42 138.59C167.626 138.147 167.669 137.838 167.669 137.838C167.669 135.225 163.551 134.405 159.664 134.405Z" fill="#389D2D"/>
<path d="M167.669 137.836C167.669 137.836 170.485 137.265 172.236 134.962C174.277 132.277 174.009 129.403 174.009 129.403C176.077 125.534 173.364 121.907 173.364 121.907C173.094 117.824 170.57 116.132 170.57 116.132C168.931 112.237 165.305 111.19 165.305 111.19C162.458 107.86 157.408 107.967 157.408 107.967C157.408 107.967 152.676 106.232 146.18 108.182C145.106 108.504 141.506 109.256 138.873 110.868C130.575 115.948 129.947 123.87 130.063 125.158C130.706 132.357 135.757 133.646 138.98 134.398C139.732 136.439 142.499 140.2 147.468 138.804C153.593 137.729 156.171 135.902 157.676 135.902C159.181 135.902 163.371 137.514 167.669 137.836Z" fill="#EEEEEE"/>
<path d="M152.182 126.261C155.184 124.643 156.811 124.794 158.247 124.924C158.704 124.965 159.136 124.998 159.573 124.995C162.131 124.937 164.203 123.859 165.12 122.816C165.225 122.686 165.276 122.521 165.262 122.355C165.247 122.189 165.17 122.034 165.044 121.924C164.919 121.814 164.756 121.756 164.589 121.764C164.422 121.771 164.265 121.843 164.15 121.964C163.443 122.768 161.701 123.657 159.543 123.706C159.156 123.717 158.768 123.679 158.366 123.641C156.825 123.498 154.911 123.323 151.569 125.127C150.712 125.59 149.536 125.761 148.262 125.89C145.429 121.801 147.134 118.24 147.621 117.392C147.669 117.394 147.715 117.41 147.764 117.41C148.28 117.41 148.799 117.283 149.268 117.018C149.411 116.931 149.514 116.791 149.557 116.629C149.599 116.467 149.576 116.295 149.494 116.15C149.411 116.004 149.276 115.896 149.115 115.849C148.954 115.801 148.782 115.818 148.633 115.896C148.228 116.119 147.753 116.181 147.304 116.07C146.854 115.958 146.463 115.681 146.209 115.294C146.114 115.159 145.969 115.066 145.807 115.034C145.644 115.002 145.475 115.035 145.336 115.124C145.196 115.213 145.096 115.353 145.057 115.514C145.018 115.675 145.042 115.845 145.125 115.989C145.431 116.467 145.861 116.827 146.347 117.068C145.676 118.432 144.4 122.019 146.827 126.03C145.12 126.198 143.41 126.439 142.072 127.302C141.131 127.919 140.311 128.701 139.65 129.611C138.839 129.472 135.87 128.741 135.352 125.445C135.674 125.195 135.934 124.865 136.096 124.457C136.127 124.379 136.142 124.295 136.141 124.21C136.139 124.125 136.121 124.042 136.088 123.964C136.054 123.886 136.005 123.816 135.945 123.757C135.884 123.698 135.812 123.652 135.733 123.621C135.654 123.589 135.57 123.574 135.486 123.575C135.401 123.577 135.317 123.595 135.24 123.628C135.162 123.662 135.092 123.711 135.033 123.772C134.974 123.832 134.928 123.904 134.896 123.983C134.848 124.119 134.77 124.242 134.669 124.345C134.568 124.447 134.446 124.527 134.311 124.577C134.174 124.622 134.03 124.638 133.887 124.622C133.744 124.607 133.606 124.561 133.482 124.487C133.408 124.446 133.327 124.42 133.242 124.41C133.158 124.4 133.073 124.407 132.992 124.431C132.827 124.477 132.688 124.588 132.605 124.737C132.522 124.887 132.502 125.063 132.549 125.227C132.596 125.392 132.706 125.531 132.855 125.614C133.222 125.818 133.613 125.921 134.003 125.921C134.051 125.921 134.096 125.899 134.143 125.896C134.757 129.008 137.216 130.374 138.955 130.788C138.728 131.273 138.584 131.793 138.529 132.325C138.514 132.496 138.567 132.665 138.677 132.796C138.786 132.927 138.944 133.009 139.114 133.024L139.172 133.027C139.333 133.027 139.488 132.966 139.607 132.857C139.726 132.749 139.8 132.599 139.814 132.439C139.953 130.875 141.445 129.241 142.771 128.384C144.014 127.583 145.833 127.414 147.594 127.25C149.303 127.094 150.917 126.945 152.182 126.261ZM168.771 124.322C168.689 124.472 168.67 124.649 168.718 124.813C168.766 124.977 168.878 125.115 169.028 125.198C169.178 125.28 169.354 125.299 169.519 125.251C169.683 125.202 169.821 125.091 169.903 124.941C169.928 124.897 172.278 120.494 167.878 117.535C167.736 117.439 167.562 117.404 167.394 117.437C167.226 117.47 167.078 117.568 166.983 117.71C166.887 117.852 166.852 118.026 166.885 118.194C166.918 118.362 167.016 118.51 167.158 118.605C170.567 120.897 168.846 124.183 168.771 124.322ZM142.046 113.912C142.148 113.912 142.249 113.887 142.34 113.841C142.431 113.794 142.51 113.726 142.57 113.643C144.439 111.043 147.028 111.932 147.138 111.974C147.297 112.026 147.47 112.015 147.62 111.942C147.771 111.869 147.887 111.741 147.945 111.584C148.003 111.427 147.997 111.254 147.93 111.101C147.862 110.948 147.738 110.827 147.583 110.764C146.345 110.305 143.486 110.161 141.523 112.892C141.454 112.988 141.413 113.101 141.404 113.22C141.395 113.338 141.419 113.456 141.473 113.561C141.527 113.667 141.609 113.755 141.71 113.817C141.811 113.879 141.928 113.911 142.046 113.912ZM158.901 111.477C161.77 111.244 163.075 113.324 163.134 113.422C163.221 113.569 163.362 113.676 163.528 113.719C163.61 113.741 163.695 113.746 163.779 113.734C163.863 113.722 163.944 113.694 164.017 113.651C164.09 113.608 164.154 113.551 164.205 113.484C164.256 113.416 164.293 113.339 164.315 113.257C164.336 113.175 164.341 113.09 164.329 113.006C164.318 112.922 164.29 112.841 164.247 112.768C164.177 112.651 162.519 109.908 158.8 110.192C158.716 110.198 158.634 110.221 158.558 110.26C158.483 110.298 158.416 110.351 158.361 110.416C158.249 110.545 158.194 110.714 158.208 110.885C158.221 111.055 158.302 111.213 158.432 111.325C158.562 111.436 158.73 111.491 158.901 111.477ZM170.699 130.316C170.382 130.298 170.032 130.55 170.004 130.906C170.001 130.929 169.796 133.122 167.541 133.863C167.394 133.91 167.268 134.008 167.186 134.139C167.105 134.271 167.074 134.427 167.099 134.58C167.123 134.732 167.202 134.871 167.32 134.97C167.439 135.07 167.589 135.123 167.743 135.121C167.812 135.121 167.88 135.11 167.945 135.088C171.003 134.085 171.279 131.138 171.289 131.013C171.296 130.928 171.287 130.843 171.261 130.762C171.235 130.682 171.193 130.607 171.138 130.542C171.084 130.477 171.017 130.424 170.941 130.385C170.866 130.347 170.783 130.323 170.699 130.316Z" fill="#389D2D"/>
<path d="M138.786 124.051C138.76 124.134 138.752 124.221 138.761 124.307C138.77 124.393 138.796 124.476 138.838 124.552C138.88 124.628 138.937 124.694 139.005 124.747C139.073 124.801 139.151 124.84 139.234 124.862C139.318 124.885 139.405 124.89 139.491 124.878C139.577 124.867 139.659 124.838 139.733 124.793C139.808 124.749 139.872 124.69 139.923 124.62C139.974 124.55 140.01 124.47 140.03 124.386C140.154 123.939 140.443 123.556 140.838 123.314C141.233 123.071 141.706 122.987 142.16 123.079C142.243 123.096 142.328 123.097 142.412 123.081C142.495 123.066 142.574 123.034 142.645 122.987C142.716 122.941 142.777 122.881 142.825 122.811C142.873 122.741 142.906 122.663 142.923 122.58C142.941 122.497 142.942 122.411 142.926 122.328C142.91 122.245 142.878 122.166 142.832 122.095C142.786 122.024 142.726 121.963 142.656 121.915C142.586 121.867 142.507 121.834 142.424 121.816C141.888 121.707 141.332 121.746 140.815 121.927C139.312 119.356 139.605 116.821 139.608 116.794C139.631 116.625 139.586 116.453 139.482 116.317C139.378 116.182 139.225 116.092 139.055 116.07C138.886 116.048 138.716 116.094 138.58 116.197C138.445 116.3 138.355 116.452 138.331 116.62C138.314 116.745 137.97 119.606 139.701 122.569C139.261 122.965 138.943 123.48 138.786 124.051ZM153.2 120.866C153.457 120.632 153.794 120.504 154.142 120.508C154.489 120.511 154.823 120.646 155.076 120.886C155.199 121.005 155.364 121.07 155.535 121.067C155.706 121.065 155.868 120.994 155.987 120.871C156.107 120.749 156.172 120.584 156.17 120.413C156.167 120.242 156.097 120.079 155.975 119.96C155.683 119.683 155.331 119.477 154.947 119.36C155.329 118.05 155.178 117.469 154.823 116.379C154.753 116.166 154.686 115.952 154.621 115.737L154.582 115.608C154.113 114.051 153.802 113.023 154.694 111.572C154.784 111.427 154.812 111.251 154.772 111.085C154.733 110.919 154.628 110.775 154.483 110.685C154.337 110.596 154.162 110.568 153.995 110.607C153.829 110.647 153.685 110.751 153.596 110.897C152.399 112.841 152.839 114.297 153.348 115.982L153.387 116.111C153.462 116.36 153.532 116.582 153.597 116.778C153.915 117.759 154.012 118.088 153.623 119.274C153.135 119.361 152.683 119.586 152.32 119.924C152.2 120.041 152.13 120.202 152.126 120.37C152.122 120.538 152.185 120.702 152.299 120.825C152.414 120.948 152.573 121.021 152.741 121.029C152.909 121.037 153.074 120.978 153.2 120.866ZM161.407 117.017C161.79 117.019 162.168 116.934 162.514 116.771C162.669 116.698 162.788 116.567 162.846 116.406C162.904 116.245 162.896 116.068 162.823 115.913C162.75 115.758 162.619 115.639 162.458 115.581C162.297 115.523 162.12 115.531 161.965 115.604C161.648 115.75 161.288 115.77 160.957 115.66C160.626 115.551 160.348 115.32 160.181 115.015C160.142 114.938 160.089 114.869 160.023 114.812C159.958 114.756 159.881 114.713 159.799 114.687C159.717 114.66 159.63 114.651 159.544 114.659C159.458 114.667 159.374 114.692 159.298 114.733C159.222 114.773 159.155 114.829 159.101 114.896C159.046 114.964 159.006 115.041 158.983 115.124C158.959 115.207 158.952 115.294 158.963 115.38C158.974 115.466 159.001 115.549 159.045 115.624C159.277 116.057 159.622 116.398 160.024 116.636C159.332 118.318 159.725 120.105 160.046 121.053C160.071 121.136 160.112 121.214 160.167 121.281C160.222 121.348 160.29 121.403 160.367 121.443C160.444 121.483 160.529 121.507 160.615 121.513C160.701 121.52 160.788 121.509 160.871 121.482C160.953 121.454 161.028 121.41 161.093 121.352C161.158 121.295 161.211 121.225 161.248 121.146C161.285 121.068 161.305 120.983 161.309 120.896C161.312 120.809 161.298 120.723 161.267 120.642C161.051 120 160.63 118.378 161.265 116.998C161.314 117.001 161.359 117.017 161.407 117.017ZM167.592 129.175C167.587 129.09 167.565 129.007 167.528 128.931C167.491 128.855 167.439 128.787 167.375 128.731C167.312 128.675 167.237 128.632 167.157 128.605C167.077 128.578 166.992 128.567 166.907 128.573C166.598 128.594 166.288 128.554 165.994 128.455C165.7 128.356 165.429 128.201 165.196 127.996C164.963 127.792 164.772 127.544 164.635 127.266C164.498 126.989 164.417 126.686 164.397 126.377C164.382 126.208 164.302 126.051 164.174 125.939C164.046 125.827 163.879 125.769 163.71 125.777C163.625 125.783 163.542 125.806 163.467 125.843C163.391 125.881 163.323 125.933 163.267 125.997C163.212 126.061 163.169 126.135 163.142 126.215C163.115 126.295 163.104 126.38 163.11 126.465C163.163 127.225 163.453 127.911 163.894 128.47C162.857 129.689 161.5 130.036 160.743 130.125C160.073 130.205 159.488 130.137 158.811 130.057C158.191 129.986 157.49 129.905 156.622 129.931L156.615 129.932C156.59 129.563 156.502 129.025 156.222 128.578C156.126 128.445 155.983 128.354 155.822 128.323C155.662 128.292 155.495 128.323 155.356 128.41C155.218 128.497 155.117 128.634 155.075 128.792C155.033 128.95 155.053 129.118 155.13 129.263C155.303 129.54 155.335 129.982 155.335 130.197C154.685 130.431 154.123 130.774 153.615 131.105C152.707 131.696 151.992 132.162 150.915 131.92C149.94 131.697 148.964 131.652 148.136 131.768C148.007 131.444 147.804 131.057 147.489 130.76C147.365 130.642 147.199 130.579 147.028 130.584C146.857 130.589 146.695 130.661 146.578 130.785C146.46 130.91 146.397 131.076 146.402 131.247C146.406 131.418 146.479 131.58 146.603 131.697C146.714 131.801 146.802 131.954 146.873 132.106C145.451 132.691 144.738 133.67 144.704 133.717C144.636 133.814 144.595 133.927 144.587 134.045C144.578 134.163 144.603 134.28 144.657 134.385C144.711 134.49 144.793 134.578 144.894 134.64C144.995 134.701 145.111 134.734 145.229 134.734C145.331 134.734 145.431 134.71 145.522 134.664C145.613 134.618 145.692 134.551 145.752 134.469C145.759 134.459 146.467 133.511 147.863 133.128C148.585 132.93 149.62 132.946 150.63 133.176C150.912 133.24 151.174 133.262 151.428 133.266C151.548 133.547 151.595 133.881 151.601 134.005C151.61 134.169 151.682 134.324 151.802 134.437C151.921 134.55 152.08 134.614 152.244 134.614L152.279 134.612C152.449 134.603 152.609 134.527 152.723 134.401C152.838 134.275 152.897 134.108 152.889 133.938C152.868 133.638 152.812 133.341 152.721 133.053C153.316 132.838 153.833 132.502 154.319 132.186C155.056 131.705 155.754 131.25 156.666 131.22C157.429 131.193 158.058 131.266 158.665 131.337C159.277 131.408 159.877 131.455 160.54 131.416C160.658 131.742 160.649 132.178 160.63 132.324C160.62 132.414 160.628 132.506 160.655 132.594C160.682 132.681 160.728 132.762 160.788 132.83C160.849 132.899 160.923 132.954 161.006 132.992C161.09 133.029 161.18 133.049 161.271 133.05C161.428 133.049 161.579 132.992 161.696 132.889C161.813 132.786 161.889 132.644 161.91 132.489C161.956 132.066 161.931 131.638 161.833 131.224C163.01 130.912 164.064 130.25 164.857 129.327C165.496 129.723 166.242 129.909 166.992 129.86C167.162 129.848 167.321 129.769 167.434 129.641C167.546 129.513 167.603 129.345 167.592 129.175Z" fill="#389D2D"/>
<defs>
<linearGradient id="paint0_linear_276_42" x1="152.561" y1="73.8916" x2="152.561" y2="177.042" gradientUnits="userSpaceOnUse">
<stop/>
<stop offset="1" stop-color="#666666"/>
</linearGradient>
<linearGradient id="paint1_linear_276_42" x1="152.561" y1="73.8916" x2="152.561" y2="177.042" gradientUnits="userSpaceOnUse">
<stop/>
<stop offset="1" stop-color="#666666"/>
</linearGradient>
<linearGradient id="paint2_linear_276_42" x1="154.557" y1="67.734" x2="154.557" y2="190.887" gradientUnits="userSpaceOnUse">
<stop/>
<stop offset="1" stop-color="#666666"/>
</linearGradient>
<linearGradient id="paint3_linear_276_42" x1="153.941" y1="51.7241" x2="153.941" y2="198.276" gradientUnits="userSpaceOnUse">
<stop/>
<stop offset="1" stop-color="#666666"/>
</linearGradient>
<linearGradient id="paint4_linear_276_42" x1="153.941" y1="43.1035" x2="153.941" y2="206.897" gradientUnits="userSpaceOnUse">
<stop/>
<stop offset="1" stop-color="#666666"/>
</linearGradient>
<linearGradient id="paint5_linear_276_42" x1="153.941" y1="0" x2="153.941" y2="250" gradientUnits="userSpaceOnUse">
<stop/>
<stop offset="1" stop-color="#666666"/>
</linearGradient>
</defs>
</svg>
